app/assets/img/work/ttl-vary-sp.svg

<svg fill="none" height="19" viewBox="0 0 72 19" width="72" xmlns="http://www.w3.org/2000/svg"><path d="m0 .0589998h3.536c.38133 0 .69333.0866662.936.2600002.24267.173333.416.402999.52.689l3.666 10.14c.16467.442.32933.923.494 1.443.17333.52.33367 1.066.481 1.638.12133-.572.26-1.118.416-1.638.1647-.52.325-1.001.481-1.443l3.64-10.14c.0867-.242667.2557-.459334.507-.65.2513-.199334.559-.2990002.923-.2990002h3.562l-7.592 18.9410002h-3.978zm36.0281 18.9410002h-3.406c-.3814 0-.6977-.0867-.949-.26-.2427-.182-.4117-.4117-.507-.689l-1.118-3.302h-7.202l-1.118 3.302c-.0867.2427-.2557.4637-.507.663-.2514.1907-.559.286-.923.286h-3.432l7.332-18.9410002h4.498zm-12.168-7.241h5.174l-1.742-5.187c-.1127-.32933-.247-.715-.403-1.157-.1474-.45067-.2947-.936-.442-1.456-.1387.52867-.2817 1.01833-.429 1.469-.1474.45067-.286.84067-.416 1.17zm18.3639.234v7.007h-4.394v-18.9410002h6.162c1.3693 0 2.535.1430002 3.497.4290002.9707.277333 1.7593.66733 2.366 1.17.6153.50267 1.0617 1.09633 1.339 1.781s.416 1.43.416 2.236c0 .61533-.0823 1.196-.247 1.742s-.4117 1.053-.741 1.521c-.3207.45933-.7193.871-1.196 1.235-.468.364-1.0097.663-1.625.897.2947.1473.5677.3293.819.546.26.2167.4853.481.676.793l4.03 6.591h-3.978c-.7367 0-1.2653-.2773-1.586-.832l-3.146-5.499c-.1387-.2427-.3033-.416-.494-.52-.182-.104-.442-.156-.78-.156zm0-3.029h1.768c.598 0 1.105-.07367 1.521-.221.4247-.156.7713-.36833 1.04-.637s.4637-.58067.585-.936c.1213-.364.182-.754.182-1.17 0-.832-.273-1.482-.819-1.95-.5373-.468-1.3737-.702-2.509-.702h-1.768zm22.595 2.834v7.202h-4.394v-7.202l-6.864-11.7390002h3.874c.3813 0 .6847.0909992.91.2729992.2253.173334.4073.398667.546.676001l2.678 5.512c.2167.442.416.84933.598 1.222s.3423.741.481 1.105c.13-.37267.286-.74533.468-1.118s.377-.77567.585-1.209l2.652-5.512c.052-.112668.1213-.225334.208-.338001.0953-.112667.1993-.212334.312-.299.1213-.095334.2557-.169.403-.221.156-.060666.325-.0909992.507-.0909992h3.9z" fill="#121111"/></svg>

<svg width="72" height="19" viewBox="0 0 72 19" fill="none" xmlns="http://www.w3.org/2000/svg">
<path d="M0 0.0589998H3.536C3.91733 0.0589998 4.22933 0.145666 4.472 0.319C4.71467 0.492333 4.888 0.721999 4.992 1.008L8.658 11.148C8.82267 11.59 8.98733 12.071 9.152 12.591C9.32533 13.111 9.48567 13.657 9.633 14.229C9.75433 13.657 9.893 13.111 10.049 12.591C10.2137 12.071 10.374 11.59 10.53 11.148L14.17 1.008C14.2567 0.765333 14.4257 0.548666 14.677 0.358C14.9283 0.158666 15.236 0.0589998 15.6 0.0589998H19.162L11.57 19H7.592L0 0.0589998ZM36.0281 19H32.6221C32.2407 19 31.9244 18.9133 31.6731 18.74C31.4304 18.558 31.2614 18.3283 31.1661 18.051L30.0481 14.749H22.8461L21.7281 18.051C21.6414 18.2937 21.4724 18.5147 21.2211 18.714C20.9697 18.9047 20.6621 19 20.2981 19H16.8661L24.1981 0.0589998H28.6961L36.0281 19ZM23.8601 11.759H29.0341L27.2921 6.572C27.1794 6.24267 27.0451 5.857 26.8891 5.415C26.7417 4.96433 26.5944 4.479 26.4471 3.959C26.3084 4.48767 26.1654 4.97733 26.0181 5.428C25.8707 5.87867 25.7321 6.26867 25.6021 6.598L23.8601 11.759ZM42.224 11.993V19H37.83V0.0589998H43.992C45.3613 0.0589998 46.527 0.202 47.489 0.488C48.4597 0.765333 49.2483 1.15533 49.855 1.658C50.4703 2.16067 50.9167 2.75433 51.194 3.439C51.4713 4.12367 51.61 4.869 51.61 5.675C51.61 6.29033 51.5277 6.871 51.363 7.417C51.1983 7.963 50.9513 8.47 50.622 8.938C50.3013 9.39733 49.9027 9.809 49.426 10.173C48.958 10.537 48.4163 10.836 47.801 11.07C48.0957 11.2173 48.3687 11.3993 48.62 11.616C48.88 11.8327 49.1053 12.097 49.296 12.409L53.326 19H49.348C48.6113 19 48.0827 18.7227 47.762 18.168L44.616 12.669C44.4773 12.4263 44.3127 12.253 44.122 12.149C43.94 12.045 43.68 11.993 43.342 11.993H42.224ZM42.224 8.964H43.992C44.59 8.964 45.097 8.89033 45.513 8.743C45.9377 8.587 46.2843 8.37467 46.553 8.106C46.8217 7.83733 47.0167 7.52533 47.138 7.17C47.2593 6.806 47.32 6.416 47.32 6C47.32 5.168 47.047 4.518 46.501 4.05C45.9637 3.582 45.1273 3.348 43.992 3.348H42.224V8.964ZM64.819 11.798V19H60.425V11.798L53.561 0.0589998H57.435C57.8163 0.0589998 58.1197 0.149999 58.345 0.331999C58.5703 0.505333 58.7523 0.730666 58.891 1.008L61.569 6.52C61.7857 6.962 61.985 7.36933 62.167 7.742C62.349 8.11467 62.5093 8.483 62.648 8.847C62.778 8.47433 62.934 8.10167 63.116 7.729C63.298 7.35633 63.493 6.95333 63.701 6.52L66.353 1.008C66.405 0.895332 66.4743 0.782666 66.561 0.669999C66.6563 0.557332 66.7603 0.457665 66.873 0.370999C66.9943 0.275665 67.1287 0.201999 67.276 0.149999C67.432 0.089333 67.601 0.0589998 67.783 0.0589998H71.683L64.819 11.798Z" fill="#121111"/>
</svg>
